ScreenPlay/assets/icons/icon_steam.svg

<?xml version="1.0" encoding="UTF-8" standalone="no"?><!DOCTYPE svg PUBLIC "-//W3C//DTD SVG 1.1//EN" "http://www.w3.org/Graphics/SVG/1.1/DTD/svg11.dtd"><svg width="100%" height="100%" viewBox="0 0 512 512" version="1.1" xmlns="http://www.w3.org/2000/svg" xmlns:xlink="http://www.w3.org/1999/xlink" xml:space="preserve" xmlns:serif="http://www.serif.com/" style="fill-rule:evenodd;clip-rule:evenodd;stroke-linejoin:round;stroke-miterlimit:1.41421;"><path id="steam-square" d="M413.982,173.02c0,-35.325 -28.99,-64.336 -64.656,-64.336c-35.326,0 -64.336,28.99 -64.336,64.336c0,35.667 28.989,64.336 64.336,64.336c35.666,0 64.656,-28.669 64.656,-64.336Zm-203.312,195.995c0,36.669 -29.33,65.999 -65.999,65.999c-25.342,0 -47.335,-14.334 -58.321,-35.325c11.007,4.331 21.673,8.661 32.659,13.333c26.664,10.665 57.339,-2.326 68.325,-29.331c10.666,-26.665 -2.325,-57.34 -29.331,-67.984l-27.326,-11.007c4.33,-1.003 9.343,-1.664 13.994,-1.664c36.669,0 65.999,29.331 65.999,66l0,-0.021Zm301.309,-272.98l0,319.973c0,52.988 -43.005,95.992 -95.992,95.992l-319.974,0c-52.987,0 -95.992,-43.004 -95.992,-95.992l0,-51.004l57.34,22.996c8.66,40.338 44.668,70.671 87.331,70.671c46.652,0 84.985,-35.666 89.336,-80.996l114.999,-84.003c66.661,0 120.331,-53.991 120.331,-119.99c0,-66.662 -53.67,-120.332 -120.331,-120.332c-65.659,0 -119.329,53.329 -119.99,118.988l-75.002,107.319c-3.008,-0.342 -5.994,-0.342 -9.343,-0.342c-16.66,0 -32.339,4.331 -45.671,12.33l-99,-39.655l0,-155.998c0,-52.988 43.005,-95.992 95.992,-95.992l319.974,0c52.987,0 95.992,43.004 95.992,95.992l0,0.043Zm-82.319,77.668c0,44.327 -35.986,80.334 -80.654,80.334c-44.327,0 -80.335,-35.986 -80.335,-80.334c0,-44.668 35.986,-80.655 80.335,-80.655c44.668,0 80.654,35.987 80.654,80.655Z" style="fill:#bebebe;fill-rule:nonzero;"/></svg>

<?xml version="1.0" encoding="UTF-8" standalone="no"?>
<!DOCTYPE svg PUBLIC "-//W3C//DTD SVG 1.1//EN" "http://www.w3.org/Graphics/SVG/1.1/DTD/svg11.dtd">
<svg width="100%" height="100%" viewBox="0 0 512 512" version="1.1" xmlns="http://www.w3.org/2000/svg" xmlns:xlink="http://www.w3.org/1999/xlink" xml:space="preserve" xmlns:serif="http://www.serif.com/" style="fill-rule:evenodd;clip-rule:evenodd;stroke-linejoin:round;stroke-miterlimit:2;">
    <path id="steam-square" d="M413.982,173.02C413.982,137.695 384.992,108.684 349.326,108.684C314,108.684 284.99,137.674 284.99,173.02C284.99,208.687 313.979,237.356 349.326,237.356C384.992,237.356 413.982,208.687 413.982,173.02ZM210.67,369.015C210.67,405.684 181.34,435.014 144.671,435.014C119.329,435.014 97.336,420.68 86.35,399.689C97.357,404.02 108.023,408.35 119.009,413.022C145.673,423.687 176.348,410.696 187.334,383.691C198,357.026 185.009,326.351 158.003,315.707L130.677,304.7C135.007,303.697 140.02,303.036 144.671,303.036C181.34,303.036 210.67,332.367 210.67,369.036L210.67,369.015ZM511.979,95.992L511.979,416.008C511.979,468.996 468.974,512 415.987,512L96.013,512C43.026,512 0.021,468.996 0.021,416.008L0.021,365.004L57.361,388C66.021,428.338 102.029,458.671 144.692,458.671C191.344,458.671 229.677,423.005 234.028,377.675L349.027,293.672C415.688,293.672 469.358,239.681 469.358,173.682C469.358,107.02 415.688,53.35 349.027,53.35C283.368,53.35 229.698,106.679 229.037,172.338L154.035,279.657C151.027,279.315 148.041,279.315 144.692,279.315C128.032,279.315 112.353,283.646 99.021,291.645L0.021,251.99L0.021,95.992C0.021,43.004 43.026,-0 96.013,-0L415.987,-0C468.974,-0 511.979,43.004 511.979,95.992ZM429.66,173.703C429.66,218.03 393.674,254.037 349.006,254.037C304.679,254.037 268.671,218.051 268.671,173.703C268.671,129.035 304.657,93.048 349.006,93.048C393.674,93.048 429.66,129.035 429.66,173.703Z" style="fill-rule:nonzero;"/>
</svg>
